src/assets/icons/files-folders-data,fancy,folder-alt.svg

<svg width="48" height="48" viewBox="0 0 48 48" fill="none" xmlns="http://www.w3.org/2000/svg">
<rect opacity="0.2" x="5" y="5" width="38" height="38" rx="4" fill="black"/>
<rect opacity="0.6" x="9" y="10" width="30" height="25" rx="4" fill="black"/>
<path d="M3.17844 29.0347C2.62948 24.826 2.355 22.7216 3.54984 21.3608C4.74469 20 6.86687 20 11.1112 20H13.7697C14.8077 20 15.3267 20 15.8233 20.1296C16.32 20.2592 16.7728 20.5128 17.6785 21.02L21.1787 22.98C22.0843 23.4872 22.5372 23.7408 23.0338 23.8704C23.5305 24 24.0495 24 25.0875 24H36.6377C40.9875 24 43.1623 24 44.3599 25.4015C45.5574 26.803 45.2182 28.9512 44.5398 33.2477L44.0662 36.2477C43.5573 39.4706 43.3028 41.082 42.1805 42.041C41.0582 43 39.4268 43 36.164 43H12.0243C8.67829 43 7.00528 43 5.87296 42.0058C4.74064 41.0116 4.52425 39.3526 4.09148 36.0347L3.17844 29.0347Z" fill="black"/>
</svg>

<svg xmlns="http://www.w3.org/2000/svg" width="48" height="48" fill="none" viewBox="0 0 48 48">
  <rect width="38" height="38" x="5" y="5" fill="#000" opacity=".2" rx="4"/>
  <rect width="30" height="25" x="9" y="10" fill="#000" opacity=".6" rx="4"/>
  <path fill="#000" d="M3.178 29.035c-.549-4.209-.823-6.313.372-7.674C4.745 20 6.867 20 11.11 20h2.659c1.038 0 1.557 0 2.053.13.497.13.95.383 1.855.89l3.5 1.96c.906.507 1.36.76 1.856.89.497.13 1.015.13 2.053.13h11.55c4.35 0 6.525 0 7.723 1.401 1.197 1.402.858 3.55.18 7.847l-.474 3c-.509 3.223-.763 4.834-1.886 5.793-1.122.959-2.753.959-6.016.959h-24.14c-3.346 0-5.019 0-6.151-.994-1.132-.994-1.349-2.653-1.782-5.971l-.913-7z"/>
</svg>
